X:1
T:Title
%%score { ( 1 3 5 ) | ( 2 4 ) }
L:1/8
M:4/4
K:Bb
V:1 treble nm="Grand Piano"
V:3 treble 
V:5 treble 
V:2 bass 
V:4 bass 
V:1
 z4 z2[Q:1/4=114] F>F | B4 z4 | G4 z4 | E2 [EF]2 [EG]2 [EA]2 | F6 z2 | B4 z4 | %6
 G4[K:bass] z4[K:treble] | [DA]2 [DA]2 [_DA]2 [=EA]2 | d6[K:bass][K:treble] z2 | e4 z4 | c4 z4 | %11
 B2 A2 A2 G2 | F6 z2 | [D^F]2 [DF]2 [DG]2 [DG]2 | A2 A2 B2 d2 | [=Ed]4 [EG]4 |[M:3/4] [Ec]6 | %17
[M:1/4] z2 |[M:4/4] [Fd]2 [Bd]2 [Ad]2 [Gd]2 | [Ae]4 z4 | [EAe]2 [Ae]2 [EAe]2 z2 | %21
 [FBd]2 [Bd]2 [FBd]2 z2 | [Fd]2 [Bd]2 [Ad]2 [Gd]2 | [Af]4 z4 | [=Ec]2 [DEB]2 [CEA]2 [B,EG]2 | %25
 [Ec]6 z2 | [Fd]2 [Bd]2 [Ad]2 [Gd]2 | [Ae]4 z4 | [EAe]2 [Ae]2 [EAe]2 z2 | %29
 [FBd]2 [Bd]2 [FBd]2 [DF]>[DF] | [Fd]2 [_Af]2 [Ge]2 [Gd]2 | [Gc]3 [Gd] [Ge]2 G>G | F2 B2 c2 d2 | %33
[M:3/4] [DB]6 |] %34
V:2
 z8 | [B,,F,]2 [F,,F,]2 [B,,F,]2 z z/ F/ | [B,,F,]2 [F,,F,]2 [B,,F,]2 [F,,F,]2 | %3
 [C,F,]2 [F,,F,]2 [C,F,]2 [F,,F,]2 | [B,,F,]2 [F,,F,]2 [B,,F,]2 z2 | %5
 [B,,F,]2 [F,,F,]2 [B,,F,]2 [F,,F,]2 | [B,,F,]2 F,,2 B,,2 z z/ G/ | %7
 [A,,F,]2 [A,,F,]2 [A,,=E,]2 [A,,G,]2 | [F,D]6 z2 | C,2 [F,A,]2 F,,2 [F,A,E]2 | %10
 B,,2 [F,B,]2 F,,2 [F,B,D]2 | C,2 [F,A,E]2 F,,2 [F,A,E]2 | B,,2 [F,B,]2 [F,B,]2 [B,,B,]>[B,,B,] | %13
 [D,A,]2 [C,A,]2 [B,,G,]2 [G,,G,]2 | [D,^F,D]2 [D,F,D]2[K:treble] [G,D]2 [G,B,F]2 | %15
 [C,B,]4 [C,B,]4 |[M:3/4] [F,A,]6 |[M:1/4][K:treble] F>F | %18
[M:4/4][K:bass] B,,2 [F,B,D]2 F,,2 [F,B,D]2 | C,2 z A [F,A,E]2 F,>F, | z2 E2 F,2 A,>F, | %21
 z2[K:treble] F2 F,2 F>F | B,,2 [F,B,D]2 F,,2 [F,B,D]2 | %23
 D,2 z[K:treble] A [A,CFA]2[K:bass] [F,A,F]>[F,A,F] | [C,G,]2 C,2 C,2 C,2 | [F,A,]6[K:treble] F>F | %26
 B,,2 [F,B,D]2 F,,2 [F,B,D]2 | C,2 z A [F,A,E]2 F,>F, | z2 E2 F,2 A,>F, | z2 F2 F,2 B,>B, | %30
 [G,=B,]2 [G,B,]2 [G,B,]2 [F,B,]2 | [E,C]3 [D,=B,] [C,C]2 [=E,B,_D]>[E,B,D] | %32
 [F,B,D]2 [F,B,D]2 [F,G,E]2 [F,A,F]2 |[M:3/4] [B,,B,]6 |] %34
V:3
 x8 | D2 D2 [DA]2 [F,DF]2 | D2 D2 [DF]2 [DG]>D | x8 | D2 D2 D2 F>F | D2 D2 [DA]2 F>F | %6
 D2[K:bass] [F,D]2 [F,DF]2[K:treble] [F,DF]2 | x8 | z2[K:bass] A,,2 D,2[K:treble] d>d | %9
 z2 E2 A2 d>A | z2 D2 B2 c>G | x8 | z2 D2 D2 [DF]>[DF] | x8 | x8 | x8 |[M:3/4] x6 |[M:1/4] x2 | %18
[M:4/4] x8 | z2 z =B [Ac]2 z2 | x8 | x8 | x8 | z2 z c c2 d>A | x8 | x8 | x8 | z2 z =B [Ac]2 z2 | %28
 x8 | x8 | x8 | x8 | x8 |[M:3/4] x6 |] %34
V:4
 x8 | z4 z2 F,,2 | x8 | x8 | x8 | x8 | z4 z2 B,,2 | x8 | D,2 z2 z4 | x8 | x8 | x8 | x8 | x8 | %14
 x4[K:treble] x4 | x8 |[M:3/4] x6 |[M:1/4][K:treble] x2 |[M:4/4][K:bass] x8 | z2 F,2 z4 | G,4 z4 | %21
 G,4[K:treble] z4 | x8 | z2 A,2[K:treble] z4[K:bass] | x8 | x6[K:treble] x2 | x8 | z2 F,2 z4 | %28
 G,4 z4 | G,4 z4 | x8 | x8 | x8 |[M:3/4] x6 |] %34
V:5
 x8 | x8 | x8 | x8 | x8 | x8 | x2[K:bass] x4[K:treble] x2 | x8 | x2[K:bass] x4[K:treble] x2 | x8 | %10
 x8 | x8 | x8 | x8 | x8 | x8 |[M:3/4] x6 |[M:1/4] x2 |[M:4/4] x8 | z2 [A,E]2 z4 | x8 | x8 | x8 | %23
 z2 [CF]2 z4 | x8 | x8 | x8 | z2 [A,E]2 z4 | x8 | x8 | x8 | x8 | x8 |[M:3/4] x6 |] %34

